svg/invoice_remove.svg

<svg xmlns="http://www.w3.org/2000/svg" viewBox="0 0 24 24"><path d="M19 13c.7 0 1.37.12 2 .34V3H3v19l3-2 3 2 3-2 1.3.86c-.2-.58-.3-1.21-.3-1.86 0-3.31 2.69-6 6-6m0 4.6-2.1-2.1-1.4 1.4 2.1 2.1-2.1 2.1 1.4 1.4 2.1-2.1 2.1 2.1 1.4-1.4-2.1-2.1 2.1-2.1-1.4-1.4z"/></svg>

<svg xmlns="http://www.w3.org/2000/svg" id="mdi-invoice-remove" viewBox="0 0 24 24"><path d="M19 13C19.7 13 20.37 13.12 21 13.34V3H3V22L6 20L9 22L12 20L13.3 20.86C13.1 20.28 13 19.65 13 19C13 15.69 15.69 13 19 13M19 17.6L16.9 15.5L15.5 16.9L17.6 19L15.5 21.1L16.9 22.5L19 20.4L21.1 22.5L22.5 21.1L20.4 19L22.5 16.9L21.1 15.5L19 17.6Z" /></svg>
